src/images/avatars/avatar-8.svg

<svg fill="none" height="85" viewBox="0 0 44 85" width="44" xmlns="http://www.w3.org/2000/svg"><path d="m33.3999 9.90003c0 4.19997-6.5 3.49997-11.3 3.49997s-11.3.6-11.3-3.49997c0-5.80002 3-8.90003 11.3-8.90003 8.5 0 11.3 3.30001 11.3 8.90003z" fill="#efab33" stroke="#4d4d4d" stroke-linejoin="round" stroke-miterlimit="10" stroke-width="2"/><path d="m32.9999 11.3c-3.3-2.29999-7.3-3.59999-11.7-3.59999-3.8 0-7.4 1.1-10.4 3.09999.9 3.1 6.8 2.6 11.2 2.6 4.1 0 9.5.5 10.9-2.1z" fill="#ac4949" stroke="#4d4d4d" stroke-linejoin="round" stroke-miterlimit="10" stroke-width="2"/><path d="m40.4 35.6999c-2 8.4-35.70001 8.4-37.50001 0-2.999998-13.8999 6.40003-24.5999 18.40001-24.5999 12.9 0 22.4 10.9 19.1 24.5999z" fill="#efab33" stroke="#4d4d4d" stroke-linejoin="round" stroke-miterlimit="10" stroke-width="2"/><path d="m4.89995 41.8c2.1539 0 3.90001-1.7461 3.90001-3.9s-1.74611-3.9-3.90001-3.9-3.89995 1.7461-3.89995 3.9 1.74605 3.9 3.89995 3.9z" fill="#f8d3c4" stroke="#4d4d4d" stroke-linejoin="round" stroke-miterlimit="10" stroke-width="2"/><path d="m38.3999 41.8c2.154 0 3.9001-1.7461 3.9001-3.9s-1.7461-3.9-3.9001-3.9c-2.1539 0-3.8999 1.7461-3.8999 3.9s1.746 3.9 3.8999 3.9z" fill="#f8d3c4" stroke="#4d4d4d" stroke-linejoin="round" stroke-miterlimit="10" stroke-width="2"/><path d="m42 74c0-4.4-3.6-8-8-8h-24.60009c-4.40001 0-8.00001 3.6-8.00001 8v1.3c5.30001 4.9 12.4 7.9 20.2 7.9 7.9 0 15-3 20.3-8v-1.2z" fill="#ac4949" stroke="#4d4d4d" stroke-linejoin="round" stroke-miterlimit="10" stroke-width="2"/><path d="m25.5003 64v-14.5h-7.6001v14.5c0 1.1-.9 2-2 2h-1.7c0 3.4 3.3 6.1 7.4 6.1s7.4001-2.7 7.4001-6.1h-1.6001c-1 0-1.8999-.9-1.8999-2z" fill="#f8d3c4" stroke="#4d4d4d" stroke-linejoin="round" stroke-miterlimit="10" stroke-width="2"/><path d="m25.5999 64.5c-5.3 0-7.7-5-7.7-5h7.5z" fill="#b0968b" opacity=".5"/><path d="m25.5003 64v-14.5h-7.6001v14.5c0 1.1-.9 2-2 2h-1.7c0 3.4 3.3 6.1 7.4 6.1s7.4001-2.7 7.4001-6.1h-1.6001c-1 0-1.8999-.9-1.8999-2z" stroke="#4d4d4d" stroke-linejoin="round" stroke-miterlimit="10" stroke-width="2"/><path d="m8.1999 26.5c-3.89999 3.9-3.29998 14.9-3.29998 14.9 0 9.6 7.19998 17.7 16.29998 17.9 9.4.3 17.2-7.7 17.2-17.5 0 0 .6-11.3-2.7-14.6-4.5-4.5-8-2.7-13.7-2.7-6 0-9.8-2-13.8 2z" fill="#f8d3c4" stroke="#4d4d4d" stroke-linejoin="round" stroke-miterlimit="10" stroke-width="2"/><path d="m32.3999 45c1.4359 0 2.6-1.1641 2.6-2.6s-1.1641-2.6-2.6-2.6-2.6 1.1641-2.6 2.6 1.1641 2.6 2.6 2.6z" fill="#f7b69d"/><path d="m10.9999 45c1.436 0 2.6-1.1641 2.6-2.6s-1.164-2.6-2.6-2.6c-1.4359 0-2.6 1.1641-2.6 2.6s1.1641 2.6 2.6 2.6z" fill="#f7b69d"/><path d="m15.3999 39.6c.8284 0 1.5-.6716 1.5-1.5 0-.8285-.6716-1.5-1.5-1.5s-1.5.6715-1.5 1.5c0 .8284.6716 1.5 1.5 1.5z" fill="#4d4d4d"/><path d="m27.8999 39.6c.8284 0 1.5-.6716 1.5-1.5 0-.8285-.6716-1.5-1.5-1.5s-1.5.6715-1.5 1.5c0 .8284.6716 1.5 1.5 1.5z" fill="#4d4d4d"/><g stroke="#4d4d4d" stroke-linejoin="round" stroke-miterlimit="10" stroke-width="2"><path d="m7.7998 77v2.6" stroke-linecap="round"/><path d="m35.6997 77v2.6" stroke-linecap="round"/><path d="m19.6001 51.4c1.4.7 2.7.7 4.0999 0" stroke-linecap="round"/><path d="m12.1999 70.6c1.2703 0 2.3001-1.0298 2.3001-2.3 0-1.2703-1.0298-2.3-2.3001-2.3s-2.3 1.0297-2.3 2.3c0 1.2702 1.0297 2.3 2.3 2.3z" fill="#aecbd7"/><path d="m31.0998 70.6c1.2702 0 2.3-1.0298 2.3-2.3 0-1.2703-1.0298-2.3-2.3-2.3-1.2703 0-2.3 1.0297-2.3 2.3 0 1.2702 1.0297 2.3 2.3 2.3z" fill="#aecbd7"/><path d="m3.00014 44.3c1.04935 0 1.89998-.8507 1.89998-1.9s-.85063-1.9-1.89998-1.9-1.90004.8507-1.90004 1.9.85069 1.9 1.90004 1.9z" fill="#aecbd7"/><path d="m40.3 44.3c1.0494 0 1.9-.8507 1.9-1.9s-.8506-1.9-1.9-1.9c-1.0493 0-1.9.8507-1.9 1.9s.8507 1.9 1.9 1.9z" fill="#aecbd7"/><path d="m15.0002 74.5001c1.2703 0 2.3-1.0298 2.3-2.3001 0-1.2702-1.0297-2.3-2.3-2.3-1.2702 0-2.3 1.0298-2.3 2.3 0 1.2703 1.0298 2.3001 2.3 2.3001z" fill="#aecbd7"/><path d="m28.3 74.5001c1.2702 0 2.3-1.0298 2.3-2.3001 0-1.2702-1.0298-2.3-2.3-2.3-1.2703 0-2.3 1.0298-2.3 2.3 0 1.2703 1.0297 2.3001 2.3 2.3001z" fill="#aecbd7"/><path d="m24.0998 76.5001c1.2702 0 2.2999-1.0298 2.2999-2.3001 0-1.2702-1.0297-2.3-2.2999-2.3-1.2703 0-2.3 1.0298-2.3 2.3 0 1.2703 1.0297 2.3001 2.3 2.3001z" fill="#aecbd7"/><path d="m19.1999 76.5001c1.2702 0 2.3-1.0298 2.3-2.3001 0-1.2702-1.0298-2.3-2.3-2.3-1.2703 0-2.3 1.0298-2.3 2.3 0 1.2703 1.0297 2.3001 2.3 2.3001z" fill="#aecbd7"/><path d="m20.2002 42.5v1.7c0 .7.6001 1.3 1.3001 1.3h1.6" stroke-linecap="round"/></g></svg>

<svg width="44" height="85" viewBox="0 0 44 85" fill="none" xmlns="http://www.w3.org/2000/svg">
<path d="M33.3999 9.90003C33.3999 14.1 26.8999 13.4 22.0999 13.4C17.2999 13.4 10.7999 14 10.7999 9.90003C10.7999 4.10001 13.7999 1 22.0999 1C30.5999 1 33.3999 4.30001 33.3999 9.90003Z" fill="#EFAB33" stroke="#4D4D4D" stroke-width="2" stroke-miterlimit="10" stroke-linejoin="round"/>
<path d="M32.9999 11.3C29.6999 9.00001 25.6999 7.70001 21.2999 7.70001C17.4999 7.70001 13.8999 8.80001 10.8999 10.8C11.7999 13.9 17.6999 13.4 22.0999 13.4C26.1999 13.4 31.5999 13.9 32.9999 11.3Z" fill="#AC4949" stroke="#4D4D4D" stroke-width="2" stroke-miterlimit="10" stroke-linejoin="round"/>
<path d="M40.4 35.6999C38.4 44.0999 4.69999 44.0999 2.89999 35.6999C-0.100008 21.8 9.30002 11.1 21.3 11.1C34.2 11.1 43.7 22 40.4 35.6999Z" fill="#EFAB33" stroke="#4D4D4D" stroke-width="2" stroke-miterlimit="10" stroke-linejoin="round"/>
<path d="M4.89995 41.8C7.05385 41.8 8.79996 40.0539 8.79996 37.9C8.79996 35.7461 7.05385 34 4.89995 34C2.74605 34 1 35.7461 1 37.9C1 40.0539 2.74605 41.8 4.89995 41.8Z" fill="#F8D3C4" stroke="#4D4D4D" stroke-width="2" stroke-miterlimit="10" stroke-linejoin="round"/>
<path d="M38.3999 41.8C40.5539 41.8 42.3 40.0539 42.3 37.9C42.3 35.7461 40.5539 34 38.3999 34C36.246 34 34.5 35.7461 34.5 37.9C34.5 40.0539 36.246 41.8 38.3999 41.8Z" fill="#F8D3C4" stroke="#4D4D4D" stroke-width="2" stroke-miterlimit="10" stroke-linejoin="round"/>
<path d="M42 74C42 69.6 38.4 66 34 66H9.39991C4.9999 66 1.3999 69.6 1.3999 74V75.3C6.69991 80.2 13.7999 83.2 21.5999 83.2C29.4999 83.2 36.5999 80.2 41.8999 75.2V74H42Z" fill="#AC4949" stroke="#4D4D4D" stroke-width="2" stroke-miterlimit="10" stroke-linejoin="round"/>
<path d="M25.5003 64V49.5H17.9002V64C17.9002 65.1 17.0002 66 15.9002 66H14.2002C14.2002 69.4 17.5002 72.1 21.6002 72.1C25.7002 72.1 29.0003 69.4 29.0003 66H27.4002C26.4002 66 25.5003 65.1 25.5003 64Z" fill="#F8D3C4" stroke="#4D4D4D" stroke-width="2" stroke-miterlimit="10" stroke-linejoin="round"/>
<path opacity="0.5" d="M25.5999 64.5C20.2999 64.5 17.8999 59.5 17.8999 59.5H25.3999L25.5999 64.5Z" fill="#B0968B"/>
<path d="M25.5003 64V49.5H17.9002V64C17.9002 65.1 17.0002 66 15.9002 66H14.2002C14.2002 69.4 17.5002 72.1 21.6002 72.1C25.7002 72.1 29.0003 69.4 29.0003 66H27.4002C26.4002 66 25.5003 65.1 25.5003 64Z" stroke="#4D4D4D" stroke-width="2" stroke-miterlimit="10" stroke-linejoin="round"/>
<path d="M8.1999 26.5C4.29991 30.4 4.89992 41.4 4.89992 41.4C4.89992 51 12.0999 59.1 21.1999 59.3C30.5999 59.6 38.3999 51.6 38.3999 41.8C38.3999 41.8 38.9999 30.5 35.6999 27.2C31.1999 22.7 27.6999 24.5 21.9999 24.5C15.9999 24.5 12.1999 22.5 8.1999 26.5Z" fill="#F8D3C4" stroke="#4D4D4D" stroke-width="2" stroke-miterlimit="10" stroke-linejoin="round"/>
<path d="M32.3999 45C33.8358 45 34.9999 43.8359 34.9999 42.4C34.9999 40.9641 33.8358 39.8 32.3999 39.8C30.964 39.8 29.7999 40.9641 29.7999 42.4C29.7999 43.8359 30.964 45 32.3999 45Z" fill="#F7B69D"/>
<path d="M10.9999 45C12.4359 45 13.5999 43.8359 13.5999 42.4C13.5999 40.9641 12.4359 39.8 10.9999 39.8C9.564 39.8 8.3999 40.9641 8.3999 42.4C8.3999 43.8359 9.564 45 10.9999 45Z" fill="#F7B69D"/>
<path d="M15.3999 39.6C16.2283 39.6 16.8999 38.9284 16.8999 38.1C16.8999 37.2715 16.2283 36.6 15.3999 36.6C14.5715 36.6 13.8999 37.2715 13.8999 38.1C13.8999 38.9284 14.5715 39.6 15.3999 39.6Z" fill="#4D4D4D"/>
<path d="M27.8999 39.6C28.7283 39.6 29.3999 38.9284 29.3999 38.1C29.3999 37.2715 28.7283 36.6 27.8999 36.6C27.0715 36.6 26.3999 37.2715 26.3999 38.1C26.3999 38.9284 27.0715 39.6 27.8999 39.6Z" fill="#4D4D4D"/>
<path d="M7.7998 77V79.6" stroke="#4D4D4D" stroke-width="2" stroke-miterlimit="10" stroke-linecap="round" stroke-linejoin="round"/>
<path d="M35.6997 77V79.6" stroke="#4D4D4D" stroke-width="2" stroke-miterlimit="10" stroke-linecap="round" stroke-linejoin="round"/>
<path d="M19.6001 51.4C21.0001 52.1 22.3001 52.1 23.7 51.4" stroke="#4D4D4D" stroke-width="2" stroke-miterlimit="10" stroke-linecap="round" stroke-linejoin="round"/>
<path d="M12.1999 70.6C13.4702 70.6 14.5 69.5702 14.5 68.3C14.5 67.0297 13.4702 66 12.1999 66C10.9296 66 9.8999 67.0297 9.8999 68.3C9.8999 69.5702 10.9296 70.6 12.1999 70.6Z" fill="#AECBD7" stroke="#4D4D4D" stroke-width="2" stroke-miterlimit="10" stroke-linejoin="round"/>
<path d="M31.0998 70.6C32.37 70.6 33.3998 69.5702 33.3998 68.3C33.3998 67.0297 32.37 66 31.0998 66C29.8295 66 28.7998 67.0297 28.7998 68.3C28.7998 69.5702 29.8295 70.6 31.0998 70.6Z" fill="#AECBD7" stroke="#4D4D4D" stroke-width="2" stroke-miterlimit="10" stroke-linejoin="round"/>
<path d="M3.00014 44.3C4.04949 44.3 4.90012 43.4493 4.90012 42.4C4.90012 41.3507 4.04949 40.5 3.00014 40.5C1.95079 40.5 1.1001 41.3507 1.1001 42.4C1.1001 43.4493 1.95079 44.3 3.00014 44.3Z" fill="#AECBD7" stroke="#4D4D4D" stroke-width="2" stroke-miterlimit="10" stroke-linejoin="round"/>
<path d="M40.3 44.3C41.3494 44.3 42.2 43.4493 42.2 42.4C42.2 41.3507 41.3494 40.5 40.3 40.5C39.2507 40.5 38.4 41.3507 38.4 42.4C38.4 43.4493 39.2507 44.3 40.3 44.3Z" fill="#AECBD7" stroke="#4D4D4D" stroke-width="2" stroke-miterlimit="10" stroke-linejoin="round"/>
<path d="M15.0002 74.5001C16.2705 74.5001 17.3002 73.4703 17.3002 72.2C17.3002 70.9298 16.2705 69.9 15.0002 69.9C13.73 69.9 12.7002 70.9298 12.7002 72.2C12.7002 73.4703 13.73 74.5001 15.0002 74.5001Z" fill="#AECBD7" stroke="#4D4D4D" stroke-width="2" stroke-miterlimit="10" stroke-linejoin="round"/>
<path d="M28.3 74.5001C29.5702 74.5001 30.6 73.4703 30.6 72.2C30.6 70.9298 29.5702 69.9 28.3 69.9C27.0297 69.9 26 70.9298 26 72.2C26 73.4703 27.0297 74.5001 28.3 74.5001Z" fill="#AECBD7" stroke="#4D4D4D" stroke-width="2" stroke-miterlimit="10" stroke-linejoin="round"/>
<path d="M24.0998 76.5001C25.37 76.5001 26.3997 75.4703 26.3997 74.2C26.3997 72.9298 25.37 71.9 24.0998 71.9C22.8295 71.9 21.7998 72.9298 21.7998 74.2C21.7998 75.4703 22.8295 76.5001 24.0998 76.5001Z" fill="#AECBD7" stroke="#4D4D4D" stroke-width="2" stroke-miterlimit="10" stroke-linejoin="round"/>
<path d="M19.1999 76.5001C20.4701 76.5001 21.4999 75.4703 21.4999 74.2C21.4999 72.9298 20.4701 71.9 19.1999 71.9C17.9296 71.9 16.8999 72.9298 16.8999 74.2C16.8999 75.4703 17.9296 76.5001 19.1999 76.5001Z" fill="#AECBD7" stroke="#4D4D4D" stroke-width="2" stroke-miterlimit="10" stroke-linejoin="round"/>
<path d="M20.2002 42.5V44.2C20.2002 44.9 20.8003 45.5 21.5003 45.5H23.1003" stroke="#4D4D4D" stroke-width="2" stroke-miterlimit="10" stroke-linecap="round" stroke-linejoin="round"/>
</svg>
